build/service/PauseSolid.svg

<svg xmlns="http://www.w3.org/2000/svg" fill="none" viewBox="0 0 24 24" focusable="false"><path d="M0 0H24V24H0z"/><path fill="#74767B" fill-rule="evenodd" d="M21 12C21 16.9706 16.9706 21 12 21C7.02944 21 3 16.9706 3 12C3 7.02944 7.02944 3 12 3C16.9706 3 21 7.02944 21 12ZM10.8633 9.08137C10.8633 8.72238 10.5723 8.43137 10.2133 8.43137C9.85432 8.43137 9.5633 8.72238 9.5633 9.08137L9.5633 14.9443C9.5633 15.3032 9.85432 15.5943 10.2133 15.5943C10.5723 15.5943 10.8633 15.3032 10.8633 14.9443L10.8633 9.08137ZM14.4367 9.08137C14.4367 8.72238 14.1457 8.43137 13.7867 8.43137C13.4277 8.43137 13.1367 8.72238 13.1367 9.08137L13.1367 14.9443C13.1367 15.3032 13.4277 15.5943 13.7867 15.5943C14.1457 15.5943 14.4367 15.3032 14.4367 14.9443L14.4367 9.08137Z"/></svg>

<svg xmlns="http://www.w3.org/2000/svg" fill="none" viewBox="0 0 24 24" focusable="false"><path fill="#74767B" fill-rule="evenodd" d="M21 12a9 9 0 0 1-9 9c-4.98 0-9-4.03-9-9 0-4.98 4.02-9 9-9 4.97 0 9 4.02 9 9M10.86 9.08c0-.36-.29-.65-.65-.65s-.65.29-.65.65v5.86c0 .36.29.65.65.65s.65-.29.65-.65zm3.57 0c0-.36-.29-.65-.65-.65s-.65.29-.65.65v5.86c0 .36.29.65.65.65s.65-.29.65-.65z"/></svg>
